!!!COM:	Johannes Ockeghem
!!!CDT:	~1425-1497/02/06
!!!OTL:	Intemerata Dei mater
!!!AGN:	Motet
!!!SCT:	Ock2003
!!!SCA:	Ock2003
!!!voices:	5
**kern	**text	**kern	**text	**kern	**text	**kern	**text	**kern	**text
*staff5	*staff5	*staff4	*staff4	*staff3	*staff3	*staff2	*staff2	*staff1	*staff1
*Ivox	*	*Ivox	*	*Ivox	*	*Ivox	*	*Ivox	*
*I"Bassus	*	*I"Vagans	*	*I"Tenor	*	*I"Contratenor	*	*I"Discantus	*
*I'B	*	*I'V	*	*I'T	*	*I'Ct	*	*I'D	*
*>[A,B,C]	*>[A,B,C]	*>[A,B,C]	*>[A,B,C]	*>[A,B,C]	*>[A,B,C]	*>[A,B,C]	*>[A,B,C]	*>[A,B,C]	*>[A,B,C]
*>A	*>A	*>A	*>A	*>A	*>A	*>A	*>A	*>A	*>A
*clefF4	*	*clefF4	*	*clefGv2	*	*clefGv2	*	*clefG2	*
*k[]	*	*k[]	*	*k[]	*	*k[]	*	*k[]	*
*M3/1	*	*M3/1	*	*M3/1	*	*M3/1	*	*M3/1	*
*met(O)	*	*met(O)	*	*met(O)	*	*met(O)	*	*met(O)	*
!!incipit: 5
!!section: Intemerata Dei mater
!!!OMD: Intemerata Dei mater
=1-	=1-	=1-	=1-	=1-	=1-	=1-	=1-	=1-	=1-
0.r	.	1.E	In-	0.r	.	0e	In-	0e	In-
.	.	2AA/	.	.	.	.	.	.	.
.	.	1AA	-te-	.	.	1e	-te-	1e	-te-
=2	=2	=2	=2	=2	=2	=2	=2	=2	=2
0.r	.	1E	-me-	0.r	.	1e	-me-	1g	-me-
.	.	1.D	-ra-	.	.	0f	-ra-	0a	-ra-
.	.	2BB/	.	.	.	.	.	.	.
=3	=3	=3	=3	=3	=3	=3	=3	=3	=3
[0.EE	In-	1.BB	-ta	0E	In-	1e	-ta	1g	-ta
.	.	.	.	.	.	0e	De-	1r	.
.	.	2GG/	De-	.	.	.	.	.	.
.	.	2.C/	.	1E	-te-	.	.	1g	De-
.	.	4D\	.	.	.	.	.	.	.
=4	=4	=4	=4	=4	=4	=4	=4	=4	=4
1EE]	.	1E	-i	1E	-me-	2.c\	.	1g	-i
.	.	.	.	.	.	4B\	.	.	.
0DD	-te-	1AA	ma-	0F	-ra-	2d\	.	1.a	ma-
.	.	.	.	.	.	2c\	-i	.	.
.	.	1D	-ter,	.	.	1A	ma-	.	.
.	.	.	.	.	.	.	.	2f/	.
=5	=5	=5	=5	=5	=5	=5	=5	=5	=5
0EE	-me-	2BB/	.	1E	-ta	2.G/	.	1g	-ter,
.	.	2C/	.	.	.	.	.	.	.
.	.	.	.	.	.	4A/	.	.	.
.	.	2BB/	.	0G	De-	2B\	.	2r	.
.	.	2GG/	ge-	.	.	2c\	-ter,	2e/	ge-
1GG	-ra-	1BB	-ne-	.	.	2r	.	1d	-ne-
.	.	.	.	.	.	2B\	ge-	.	.
=6	=6	=6	=6	=6	=6	=6	=6	=6	=6
1AA	-ta	2AA/	-ro-	1C	-i	2.c\	-ne-	2f/	-ro-
.	.	1C	.	.	.	.	.	1e	.
.	.	.	.	.	.	8B/L	.	.	.
.	.	.	.	.	.	8A/J	.	.	.
1r	.	.	.	2E/	ma-	2G/	.	.	.
.	.	2AA/	.	2F/	.	1A	-ro-	2c/	.
1r	.	1BB	.	1D	.	.	.	2d/	-sa
.	.	.	.	.	.	2G#i/	-sa	2B/	.
=7	=7	=7	=7	=7	=7	=7	=7	=7	=7
0.r	.	0AA	-sa	1E	-ter,	2.A/	pu-	2.c/	pu-
.	.	.	.	.	.	4B\	.	4d/	.
.	.	.	.	2.C/	pu-	2.c\	.	2.e/	.
.	.	.	.	4D/	.	4B\	.	4f/	.
.	.	1r	.	2.E/	-el-	2G/	-el-	2.g/	-el-
.	.	.	.	.	.	2c\	.	.	.
.	.	.	.	4F/	.	.	.	4f/	.
=8	=8	=8	=8	=8	=8	=8	=8	=8	=8
0.r	.	0.r	.	2.G/	.	2B\	.	2d/	.
.	.	.	.	.	.	2c\	.	2e/	.
.	.	.	.	4F/	.	.	.	.	.
.	.	.	.	2.D/	.	2.d\	.	2.f/	.
.	.	.	.	4E/	.	4c\	.	4g/	.
.	.	.	.	2.F/	.	2.A/	.	2.a/	.
.	.	.	.	4G/	.	4B\	.	4g/	.
=9	=9	=9	=9	=9	=9	=9	=9	=9	=9
1r	.	1AA	mi-	1A	-la,	1c	-la,	1e	-la,
1r	.	2BB/	.	1G	mi-	2d\	mi-	1r	.
.	.	2C/	.	.	.	2.e\	.	.	.
2.AA/	mi-	1AA	.	2A/	.	.	.	1r	.
.	.	.	.	.	.	2c\	.	.	.
.	.	.	.	[2E/	.	.	.	.	.
4FF/	.	.	.	.	.	8B/L	.	.	.
.	.	.	.	.	.	8A/J	.	.	.
=10	=10	=10	=10	=10	=10	=10	=10	=10	=10
2EE/	.	2BB/	.	2E/]	.	2G/	.	0.r	.
2DD/	-li-	2D\	-li-	2F/	-li-	2A/	-li-	.	.
1AA	.	2.C/	-a	2E/	-a	1c	-a	.	.
.	.	.	.	2A/	car-	.	.	.	.
.	.	4D\	.	.	.	.	.	.	.
1EE	-a	1E	.	2.G/	-mi-	2B\	.	.	.
.	.	.	.	.	.	2B\	car-	.	.
.	.	.	.	4A/	.	.	.	.	.
=11	=11	=11	=11	=11	=11	=11	=11	=11	=11
2GG/	car-	2BB/	car-	2B\	.	1E	-mi-	0.r	.
1AA	-mi-	2AA/	.	1c	.	.	.	.	.
.	.	2C/	-mi-	.	.	2A/	.	.	.
2BB/	.	2D\	-ni-	2B\	-ni-	2G/	.	.	.
2C/	.	1E	-bus	1A	-bus	2A/	.	.	.
2AA/	-ni-	.	.	.	.	2c\	-ni-	.	.
=12	=12	=12	=12	=12	=12	=12	=12	=12	=12
1EE	-bus	0.r	.	1.B	quam	2B\	-bus	1.g	quam
.	.	.	.	.	.	1e	quam	.	.
2GG/	quam	.	.	.	.	.	.	.	.
2FF/	sti-	.	.	2A/	sti-	2d\	.	2.a/	sti-
2DD/	-pant	.	.	2d\	.	2f\	sti-	.	.
.	.	.	.	.	.	.	.	4f/	.
2EE/	ag-	.	.	4c\	.	[2e\	.	[2g/	.
.	.	.	.	[4B\	.	.	.	.	.
=13	=13	=13	=13	=13	=13	=13	=13	=13	=13
2GG/	-mi-	0.r	.	4B\]	.	2e\]	.	2g/]	.
.	.	.	.	4A/	.	.	.	.	.
2AA/	-na	.	.	2A/	-pant	2c\	.	2e/	.
1BB	di-	.	.	2r	.	2.B\	-pant	2d/	-pant
.	.	.	.	2G/	ag-	.	.	2B/	ag-
.	.	.	.	.	.	4G/	.	.	.
1AA	-vum,	.	.	2.C/	-mi-	2A/	.	2c/	-mi-
.	.	.	.	.	.	2F/	ag-	4B/	.
.	.	.	.	4D/	.	.	.	4A/	.
=14	=14	=14	=14	=14	=14	=14	=14	=14	=14
0.r	.	0.r	.	2E/	-na	2E/	-mi-	2G/	-na
.	.	.	.	2AA/	di-	2F/	-na	2A/	di-
.	.	.	.	2E/	.	2G/	di-	2c/	.
.	.	.	.	2F/	.	1A	.	2A/	.
.	.	.	.	1E	.	.	.	1B	.
.	.	.	.	.	.	2G#i/	.	.	.
=15	=15	=15	=15	=15	=15	=15	=15	=15	=15
1r	.	0AA	re-	1E	-vum,	2.A/	-vum,	1A	-vum,
.	.	.	.	.	.	4B\	.	.	.
1r	.	.	.	0A	re-	1c	.	1r	.
1AA	re-	1E	.	.	.	1c	re-	1a	re-
=16	=16	=16	=16	=16	=16	=16	=16	=16	=16
0DD	-spi-	2.D\	-spi-	1.F	-spi-	0d	-spi-	0a	-spi-
.	.	4C/	.	.	.	.	.	.	.
.	.	1AA	-ce	.	.	.	.	.	.
.	.	.	.	2D/	.	.	.	.	.
1GG	-ce	2r	.	2E/	-ce	1B	-ce	1g	-ce
.	.	2BB/	nos	2D/	.	.	.	.	.
=17	=17	=17	=17	=17	=17	=17	=17	=17	=17
1FF	nos	2C/	.	1F	nos	1A	nos	1a	nos
.	.	2D\	.	.	.	.	.	.	.
0EE	tan-	2E\	tan-	1G	.	2c\	tan-	1.g	tan-
.	.	2BB/	.	.	.	2B\	.	.	.
.	.	1C	.	1r	.	1G	-tum,	.	.
.	.	.	.	.	.	.	.	2e/	.
=18	=18	=18	=18	=18	=18	=18	=18	=18	=18
1DD	-tum,	0D	.	1A	tan-	2r	.	1f	.
.	.	.	.	.	.	1d	si	.	.
0GG	.	.	.	2.G/	.	.	.	0d	.
.	.	.	.	.	.	2B\	.	.	.
.	.	.	.	4F/	.	.	.	.	.
.	.	1BB	.	1D	.	2B\	quid	.	.
.	.	.	.	.	.	2G/	.	.	.
=19	=19	=19	=19	=19	=19	=19	=19	=19	=19
2r	.	1AA	-tum,	0E	-tum,	2A/	ju-	1c	-tum,
1AA	ju-	.	.	.	.	1c	.	.	.
.	.	2r	.	.	.	.	.	2A/	si
2GG/	-bi-	1E	ju-	.	.	2B\	.	2B/	.
2AA/	-lan-	.	.	1r	.	1A	-bi-	2c/	quid
2FF/	.	2D\	-bi-	.	.	.	.	2d/	.
=20	=20	=20	=20	=20	=20	=20	=20	=20	=20
1EE	-do	2E\	-lan-	1r	.	2.G/	-lan-	2r	.
.	.	2C/	.	.	.	.	.	1e	ju-
.	.	.	.	.	.	4A/	.	.	.
1r	.	1BB	-do	2.G/	si	1B	.	.	.
.	.	.	.	.	.	.	.	2d/	-bi-
.	.	.	.	4A/	.	.	.	.	.
1EE	ju-	2r	.	2.B\	quid	4E/	.	2e/	-lan-
.	.	.	.	.	.	2G/	.	.	.
.	.	2E\	ju-	.	.	.	.	2c/	.
.	.	.	.	4G/	.	4A/	.	.	.
=21	=21	=21	=21	=21	=21	=21	=21	=21	=21
2GG/	-bi-	2D\	.	2G/	.	2B\	.	2B/	-do
1AA	-lan-	2C/	-bi-	2E/	ju-	2.c\	.	2A/	.
.	.	2.F\	-lan-	2C/	.	.	.	1r	.
.	.	.	.	.	.	4B\	.	.	.
2BB/	.	.	.	2D/	-bi-	2B\	.	.	.
.	.	4G\	.	.	.	.	.	.	.
2.C/	.	2.E\	.	2E/	-lan-	2G/	-do	1r	.
.	.	.	.	2G/	.	2r	.	.	.
4BB/	.	4D\	.	.	.	.	.	.	.
=22	=22	=22	=22	=22	=22	=22	=22	=22	=22
2C/	.	2E\	.	2A/	.	2c\	ju-	0.r	.
2GG/	.	2D\	.	1G	.	2B\	-bi-	.	.
2C/	.	2E\	.	.	.	4.c\	-lan-	.	.
.	.	.	.	.	.	8A/	.	.	.
2D\	.	2.F\	.	2F/	.	2A/	-do	.	.
1BB	.	.	.	1D	.	2r	.	.	.
.	.	4.G\	.	.	.	.	.	.	.
.	.	.	.	.	.	2G/	me-	.	.
.	.	8F\L	.	.	.	.	.	.	.
.	.	8E\	.	.	.	.	.	.	.
.	.	8D\J	.	.	.	.	.	.	.
=23	=23	=23	=23	=23	=23	=23	=23	=23	=23
2.AA/	.	2.C/	.	1E	-do	1.A	-re-	0.r	.
4BB/	.	4D\	.	.	.	.	.	.	.
2C/	-do	2E\	-do	2r	.	.	.	.	.
1D	me-	2D\	me-	2.F/	me-	2.B\	.	.	.
.	.	2F\	-re-	.	.	.	.	.	.
.	.	.	.	2D/	-re-	4A/	.	.	.
2GG/	.	2G\	.	.	.	2B\	.	.	.
.	.	.	.	4E/	.	.	.	.	.
=24	=24	=24	=24	=24	=24	=24	=24	=24	=24
2FF/	-re-	2C/	.	2F/	.	2A/	.	0.r	.
2GG/	.	2BB/	.	2D/	.	2G/	.	.	.
1AA	.	2AA/	.	4F/	.	2.c\	.	.	.
.	.	.	.	2E/	.	.	.	.	.
.	.	2C/	.	.	.	.	.	.	.
.	.	.	.	4F/	.	4A/	.	.	.
2BB-/	-mur.	2D\	-mur.	2G/	.	2G/	.	.	.
[2AA/	.	4r	.	[2A/	.	2F/	.	.	.
.	.	[4C/	me-	.	.	.	.	.	.
=25	=25	=25	=25	=25	=25	=25	=25	=25	=25
2AA/]	.	4C/]	.	4A/]	.	2c\	.	0.r	.
.	.	4D\	.	2G/	.	.	.	.	.
2C/	me-	2E\	.	.	.	4B\	.	.	.
.	.	.	.	4F/	.	2A/	.	.	.
2D\	-re-	2F\	-re-	1D	-mur.	.	.	.	.
.	.	.	.	.	.	4G/	.	.	.
2GG/	.	1D	.	.	.	1G	.	.	.
1AA	.	.	.	2r	.	.	.	.	.
.	.	2C/	.	2A/	me-	2F#i/	.	.	.
=26	=26	=26	=26	=26	=26	=26	=26	=26	=26
1GG	.	2D\	.	2.B\	-re-	2.G/	.	0.r	.
.	.	2E\	.	.	.	.	.	.	.
.	.	.	.	4G/	.	4E/	.	.	.
1D	.	2F\	.	2A/	.	2D/	.	.	.
.	.	2D\	.	2B\	.	2F/	.	.	.
1C	-mur.	1AA	-mur.	1c	-mur.	1E	-mur.	.	.
=27	=27	=27	=27	=27	=27	=27	=27	=27	=27
0D	Tu	1r	.	1.F	Tu	0D	Tu	0.d	Tu
.	.	0BB	Tu	.	.	.	.	.	.
.	.	.	.	1.G	.	.	.	.	.
1r	.	.	.	.	.	1d	.	.	.
=28	=28	=28	=28	=28	=28	=28	=28	=28	=28
0DD	scis,	0AA	scis,	0A	scis,	0d	scis,	0f	scis,
1AA	vir-	1C	vir-	1A	vir-	1c	.	1e	.
=29	=29	=29	=29	=29	=29	=29	=29	=29	=29
2.BB-/	-go	1D	.	2F/	.	1r	.	1d	vir-
.	.	.	.	2G/	.	.	.	.	.
4AA/	.	.	.	.	.	.	.	.	.
0FF	.	1C	.	1A	.	1c	vir-	2.f/	.
.	.	.	.	.	.	.	.	4g/	.
.	.	1F	-go	1c	-go	1A	-go	1a	.
=30	=30	=30	=30	=30	=30	=30	=30	=30	=30
1GG	de-	2r	.	1B	de-	2B\	de-	1g	-go
.	.	2D\	de-	.	.	2d\	.	.	.
2C/	.	2E\	.	2c\	.	2c\	.	2a/	de-
2BB/	.	2D\	.	2G/	.	2d\	.	1g	.
2C/	-cens,	2E\	.	1A	.	2c\	.	.	.
2D\	.	2Fni\	.	.	.	2A/	.	2f#i/	.
=31	=31	=31	=31	=31	=31	=31	=31	=31	=31
2r	.	1BBn	-cens,	0G	-cens,	1d	-cens,	0g	-cens,
1GG	quan-	.	.	.	.	.	.	.	.
.	.	1D	quan-	.	.	2.B\	quan-	.	.
2BB/	.	.	.	.	.	.	.	.	.
.	.	.	.	.	.	4G/	.	.	.
2C/	.	2C/	.	1r	.	2A/	.	2e/	quan-
2BB/	.	[2D\	-to	.	.	[2B\	-to	2d/	.
=32	=32	=32	=32	=32	=32	=32	=32	=32	=32
1GG	-to	2D\]	.	1G	quan-	2B\]	.	1d	-to
.	.	2BB/	dis-	.	.	2d\	dis-	.	.
2AA/	dis-	2C/	-cri-	2F/	-to	4c\	-cri-	1r	.
.	.	.	.	.	.	4A/	.	.	.
2C/	.	2AA/	.	2E/	.	1A	.	.	.
1BB	.	1D	-mi-	2r	.	.	.	1r	.
.	.	.	.	2D/	dis-	2G#i/	-mi-	.	.
=33	=33	=33	=33	=33	=33	=33	=33	=33	=33
1AA	-cri-	2C/	-ne	2.E/	-cri-	0A	-ne	1c	dis-
.	.	1AA	.	.	.	.	.	.	.
.	.	.	.	4C/	.	.	.	.	.
2DD/	.	.	.	2D/	.	.	.	2.f/	-cri-
2AA/	-mi-	2C/	a-	2F/	.	.	.	.	.
.	.	.	.	.	.	.	.	4e/	.
2BB-/	-ne	2D\	-ga-	2G/	.	1r	.	2d/	.
2AA/	.	2F\	.	[2A/	.	.	.	2c/	-mi-
=34	=34	=34	=34	=34	=34	=34	=34	=34	=34
2.C/	a-	2E\	-tur,	4A/]	.	1c	a-	2.e/	-ne
.	.	.	.	4G/	.	.	.	.	.
.	.	2C/	.	1E	.	.	.	.	.
4AA/	.	.	.	.	.	.	.	4f/	.
2GG/	-ga-	2r	.	.	.	2B\	-ga-	2g/	a-
2FF/	-tur,	2C/	e-	2F/	-mi-	2A/	-tur,	1a	-ga-
2r	.	2AA/	.	2C/	-ne	2.c\	.	.	.
2FF/	e-	2C/	.	2F/	a-	.	.	2f/	-tur,
.	.	.	.	.	.	8B/L	.	.	.
.	.	.	.	.	.	8A/J	.	.	.
=35	=35	=35	=35	=35	=35	=35	=35	=35	=35
2GG/	-xu-	2BB/	-xu-	2E/	-ga-	2G/	.	2r	.
2FF/	.	2C/	.	2F/	.	2A/	e-	2a/	e-
2GG/	.	2BB/	.	4E/	.	2B\	-xu-	2g/	-xu-
.	.	.	.	4D/	.	.	.	.	.
2AA/	.	1AA	.	2C/	.	2c\	.	2e/	.
1DD	-li-	.	.	2D/	-tur,	2.A/	.	2f/	.
.	.	[2A\	.	[2F/	e-	.	.	2d/	.
.	.	.	.	.	.	4G/	.	.	.
=36	=36	=36	=36	=36	=36	=36	=36	=36	=36
1D	-bus	2A\]	.	2F/]	.	1F	-li-	2.f/	-li-
.	.	2F\	-li-	1A	-xu-	.	.	.	.
.	.	.	.	.	.	.	.	8e/L	.
.	.	.	.	.	.	.	.	8d/J	.
2.AA/	pas-	2.E\	-bus	.	.	1A	-bus	2.c/	.
.	.	.	.	2F/	-li-	.	.	.	.
4BB/	.	4D\	.	.	.	.	.	4d/	.
2C/	-sim-	2G\	.	2E/	-bus	2r	.	2e/	-bus
2D\	-que	2F\	pas-	2A/	pas-	2d\	pas-	2f/	pas-
=37	=37	=37	=37	=37	=37	=37	=37	=37	=37
2r	.	2E\	-sim-	2G/	-sim-	2c\	-sim-	2g/	-sim-
2D\	qui-	2D\	.	2.A/	-que	2d\	-que	2f/	-que
2C/	.	2AA/	-que	.	.	2e\	qui-	2e/	qui-
.	.	.	.	4G/	.	.	.	.	.
1D	-bus	2r	.	2B-i\	qui-	1d	-bus	1f	-bus
.	.	2D\	qui-	1A	-bus	.	.	.	.
2AA/	jac-	2C/	-bus	.	.	2c\	jac-	2e/	jac-
=38	=38	=38	=38	=38	=38	=38	=38	=38	=38
2BB-/	-te-	2D\	jac-	2F/	jac-	2.B-i\	-te-	2.d/	-te-
2GG/	.	2BB-i/	.	2E/	.	.	.	.	.
.	.	.	.	.	.	4G/	.	4c/	.
2FF/	.	2.C/	-te-	2F/	-te-	1.A	-mur	2A/	.
1AA	-mur	.	.	2E/	.	.	.	1c	-mur
.	.	4D\	.	.	.	.	.	.	.
.	.	2.E\	.	1A	-mur	.	.	.	.
2AA/	a-	.	.	.	.	2c\	a-	2e/	a-
.	.	4F\	.	.	.	.	.	.	.
=39	=39	=39	=39	=39	=39	=39	=39	=39	=39
2BB-/	-re-	2G\	.	2D/	a-	2B-\	-re-	2d/	-re-
2AA/	.	2C/	.	2A/	-re-	2c\	.	4e/	.
.	.	.	.	.	.	.	.	2f/	.
1BB-	.	1D	-mur	2F/	.	2B-\	.	.	.
.	.	.	.	.	.	.	.	4d/	.
.	.	.	.	2D/	.	2G/	.	1d	.
1AA	.	2r	.	1E	.	1A	-nis.	.	.
.	.	[2AA/	a-	.	.	.	.	2c#i/	.
=40	=40	=40	=40	=40	=40	=40	=40	=40	=40
2FF/	.	2AA/]	.	[0.Dl	-nis.	2r	.	[0.dl	-nis.
1GG	.	1BB-i	.	.	.	1G	a-	.	.
2FF/	.	2AA/	-re-	.	.	2A/	.	.	.
[1DDl	-nis.	[1AAl	-nis.	.	.	2.F/	-re-	.	.
.	.	.	.	.	.	4G/	.	.	.
=41	=41	=41	=41	=41	=41	=41	=41	=41	=41
0.DD]	.	0.AA]	.	0.D]	.	0.Al	-nis.	0.d]	.
!!LO:LB:i:g=z
=42||	=42||	=42||	=42||	=42||	=42||	=42||	=42||	=42||	=42||
*>B	*>B	*>B	*>B	*>B	*>B	*>B	*>B	*>B	*>B
*clefF4	*	*clefF4	*	*clefGv2	*	*clefGv2	*	*clefG2	*
*k[]	*	*k[]	*	*k[]	*	*k[]	*	*k[]	*
*M2/1	*	*M2/1	*	*M2/1	*	*M2/1	*	*M2/1	*
*met(C|)	*	*met(C|)	*	*met(C|)	*	*met(C|)	*	*met(C|)	*
!!section: Nec sine te manet
!!!OMD: Nec sine te manet
0r	.	0r	.	0E	Nec	0e	Nec	0g	Nec
=43	=43	=43	=43	=43	=43	=43	=43	=43	=43
0r	.	0r	.	1E	si-	1e	si-	1g	si-
.	.	.	.	1E	-ne	1e	-ne	1g	-ne
=44	=44	=44	=44	=44	=44	=44	=44	=44	=44
0r	.	0r	.	0E	te	1.e	te	0g	te
.	.	.	.	.	.	4d\	.	.	.
.	.	.	.	.	.	4c\	.	.	.
=45	=45	=45	=45	=45	=45	=45	=45	=45	=45
0r	.	0r	.	1E	ma-	1B	.	1g	ma-
.	.	.	.	1E	-net	1B	ma-	[1g	-net
=46	=46	=46	=46	=46	=46	=46	=46	=46	=46
0r	.	0r	.	0E	ul-	1c	-net	1g]	.
.	.	.	.	.	.	1c	ul-	1e	ul-
=47	=47	=47	=47	=47	=47	=47	=47	=47	=47
0r	.	0r	.	0D	-la	1d	-la	1f	-la
.	.	.	.	.	.	[1f	qui-	[1a	qui-
=48	=48	=48	=48	=48	=48	=48	=48	=48	=48
0r	.	0r	.	1.F	qui-	2f\]	.	2a/]	.
.	.	.	.	.	.	2e\	.	2g/	.
.	.	.	.	.	.	1d	.	1f	.
.	.	.	.	2G/	.	.	.	.	.
=49	=49	=49	=49	=49	=49	=49	=49	=49	=49
1r	.	1r	.	1.A	-es,	0c	-es,	0e	-es,
[1AA	spes	[1C	spes	.	.	.	.	.	.
.	.	.	.	4G/	.	.	.	.	.
.	.	.	.	4F/	.	.	.	.	.
=50	=50	=50	=50	=50	=50	=50	=50	=50	=50
1AA]	.	1C]	.	1E	spes	0r	.	0r	.
1AA	nul-	1C	nul-	1F	nul-	.	.	.	.
=51	=51	=51	=51	=51	=51	=51	=51	=51	=51
1BB	-la	1D	-la	1G	-la	0r	.	0r	.
[1AA	la-	[1C	la-	[1F	la-	.	.	.	.
=52	=52	=52	=52	=52	=52	=52	=52	=52	=52
1AA]	.	1C]	.	1F]	.	0r	.	0r	.
1GG	.	1BB	.	1E	.	.	.	.	.
=53	=53	=53	=53	=53	=53	=53	=53	=53	=53
0FF	-bo-	0AA	-bo-	0D	-bo-	0r	.	0r	.
=54	=54	=54	=54	=54	=54	=54	=54	=54	=54
0EE	-ri,	0GG	-ri,	0C	-ri,	1r	.	1r	.
.	.	.	.	.	.	[1G	nul-	[1e	nul-
=55	=55	=55	=55	=55	=55	=55	=55	=55	=55
0r	.	0r	.	1.E	nul-	1G]	.	2e/]	.
.	.	.	.	.	.	.	.	4d/	-la
.	.	.	.	.	.	.	.	4c/	.
.	.	.	.	.	.	1G	-la	1B	sa-
.	.	.	.	4D/	-la	.	.	.	.
.	.	.	.	4C/	.	.	.	.	.
=56	=56	=56	=56	=56	=56	=56	=56	=56	=56
0r	.	0r	.	1BB	sa-	1G	sa-	1B	-lus
.	.	.	.	1BB	-lus	1G	-lus	1d	pa-
=57	=57	=57	=57	=57	=57	=57	=57	=57	=57
0r	.	0r	.	1AA	pa-	1A	pa-	1c	.
.	.	.	.	2D/	.	2B\	.	2d/	.
.	.	.	.	[2C/	.	[2c\	.	[2e/	.
=58	=58	=58	=58	=58	=58	=58	=58	=58	=58
0r	.	0r	.	2C/]	.	2c\]	.	2e/]	.
.	.	.	.	2GG/	.	2B\	.	2d/	.
.	.	.	.	2AA/	.	2A/	.	2c/	.
.	.	.	.	2GG/	.	[2B\	.	[2d/	.
=59	=59	=59	=59	=59	=59	=59	=59	=59	=59
0r	.	0r	.	1AA	-tri-	4B\]	.	4d/]	.
.	.	.	.	.	.	4A/	.	4c/	.
.	.	.	.	.	.	1A	-tri-	2A/	.
.	.	.	.	1E	-ae,	.	.	1B	-tri-
.	.	.	.	.	.	2G#i/	.	.	.
=60	=60	=60	=60	=60	=60	=60	=60	=60	=60
1r	.	1AA	do-	1r	.	0A	-ae,	0A	-ae,
[1AA	do-	2r	.	[1E	do-	.	.	.	.
.	.	[2C/	.	.	.	.	.	.	.
=61	=61	=61	=61	=61	=61	=61	=61	=61	=61
2AA/]	.	2C/]	.	1E]	.	0r	.	0r	.
4GG/	.	4BB/	.	.	.	.	.	.	.
4FF/	.	4AA/	.	.	.	.	.	.	.
1EE	-mus	2BB/	-mus	1G	-mus	.	.	.	.
.	.	2C/	.	.	.	.	.	.	.
=62	=62	=62	=62	=62	=62	=62	=62	=62	=62
1DD	aut	1D	aut	1F	aut	0r	.	0r	.
1GG	po-	2E\	po-	1G	po-	.	.	.	.
.	.	[2D\	-ti-	.	.	.	.	.	.
=63	=63	=63	=63	=63	=63	=63	=63	=63	=63
1FF	-ti-	2D\]	.	1A	-ti-	0r	.	0r	.
.	.	2C/	.	.	.	.	.	.	.
2GG/	-un-	2BB/	-un-	2G/	-un-	.	.	.	.
[2AA/	-da	[2C/	-da	2E/	.	.	.	.	.
=64	=64	=64	=64	=64	=64	=64	=64	=64	=64
2AA/]	.	2C/]	.	2.F/	-da	0r	.	0r	.
2GG/	.	2BB/	.	.	.	.	.	.	.
.	.	.	.	4E/	.	.	.	.	.
2FF/	.	2AA/	.	2D/	.	.	.	.	.
2GG/	pa-	[2BB/	pa-	[2E/	pa-	.	.	.	.
=65	=65	=65	=65	=65	=65	=65	=65	=65	=65
1DD	-ren-	2BB/]	.	2E/]	.	0r	.	0r	.
.	.	1AA	-ren-	1D	-ren-	.	.	.	.
1EE	.	.	.	.	.	.	.	.	.
.	.	2GG/	.	2C#i/	.	.	.	.	.
=66	=66	=66	=66	=66	=66	=66	=66	=66	=66
1DD	-tis,	0AA	-tis,	1D	-tis,	0A	cu-	1r	.
1r	.	.	.	1r	.	.	.	[1e	cu-
=67	=67	=67	=67	=67	=67	=67	=67	=67	=67
0r	.	1AA	cu-	0r	.	1A	-i	1e]	.
.	.	1AA	-i	.	.	1A	re-	1e	-i
=68	=68	=68	=68	=68	=68	=68	=68	=68	=68
0r	.	1AA	re-	0r	.	1.c	-gi-	1e	re-
.	.	1E	-gi-	.	.	.	.	1g	-gi-
.	.	.	.	.	.	2B\	.	.	.
=69	=69	=69	=69	=69	=69	=69	=69	=69	=69
0r	.	1E	-na	0r	.	1B	-na	1g	-na
.	.	1E	prae-	.	.	2B\	prae-	1g	prae-
.	.	.	.	.	.	2c\	.	.	.
=70	=70	=70	=70	=70	=70	=70	=70	=70	=70
0r	.	1D	-es,	0r	.	1.d	.	1.f	.
.	.	1D	dis-	.	.	.	.	.	.
.	.	.	.	.	.	4c\	.	2g/	.
.	.	.	.	.	.	4B\	.	.	.
=71	=71	=71	=71	=71	=71	=71	=71	=71	=71
0r	.	1F	-pen-	0r	.	1A	-es,	1.a	.
.	.	1F	-sans	.	.	1A	dis-	.	.
.	.	.	.	.	.	.	.	4g/	.
.	.	.	.	.	.	.	.	4f/	.
=72	=72	=72	=72	=72	=72	=72	=72	=72	=72
0r	.	1A	om-	0r	.	1c	-pen-	1e	-es,
.	.	2A\	-ni-	.	.	1c	-sans	1e	dis-
.	.	4G\	.	.	.	.	.	.	.
.	.	4F\	.	.	.	.	.	.	.
=73	=73	=73	=73	=73	=73	=73	=73	=73	=73
0r	.	1E	-a:	0r	.	1e	om-	1g	-pen-
.	.	1C	lae-	.	.	2e\	-ni-	1g	-sans
.	.	.	.	.	.	4d\	.	.	.
.	.	.	.	.	.	4c\	.	.	.
=74	=74	=74	=74	=74	=74	=74	=74	=74	=74
0r	.	1E	.	0r	.	1B	-a:	1g	om-
.	.	1C	-to,	.	.	1c	lae-	2g/	-ni-
.	.	.	.	.	.	.	.	4f/	.
.	.	.	.	.	.	.	.	4e/	.
=75	=75	=75	=75	=75	=75	=75	=75	=75	=75
0r	.	1r	.	1G	su-	1B	-to,	1d	-a:
.	.	1C	su-	1c	.	1e	su-	1r	.
=76	=76	=76	=76	=76	=76	=76	=76	=76	=76
0r	.	1G	-sci-	2B\	-sci-	2d\	-sci-	0r	.
.	.	.	.	1G	-pis	1B	-pis	.	.
.	.	2E\	-pis	.	.	.	.	.	.
.	.	2C/	.	2E/	.	2c\	.	.	.
=77	=77	=77	=77	=77	=77	=77	=77	=77	=77
0r	.	2BB/	o-	2F/	o-	2d\	o-	0r	.
.	.	1GG	-re	1G	-re	1B	-re	.	.
.	.	2GG/	.	4F/	.	4A/	.	.	.
.	.	.	.	4E/	.	4G/	.	.	.
=78	=78	=78	=78	=78	=78	=78	=78	=78	=78
0r	.	2r	.	1D	.	2F#i/	.	0r	.
.	.	2.GG/	pi-	.	.	1G	.	.	.
.	.	.	.	2E/	.	.	.	.	.
.	.	4AA/	.	.	.	.	.	.	.
.	.	[2BB/	.	2D/	.	2F#i/	pi-	.	.
=79	=79	=79	=79	=79	=79	=79	=79	=79	=79
0r	.	2BB/]	.	2G/	.	1G	-os,	0r	.
.	.	2GG/	.	1G	pi-	.	.	.	.
.	.	1D	-os,	.	.	1A	.	.	.
.	.	.	.	2F#i/	.	.	.	.	.
=80	=80	=80	=80	=80	=80	=80	=80	=80	=80
0GG	dul-	1r	.	1G	-os,	1G	dul-	0d	dul-
.	.	1D	dul-	1G	dul-	1B	.	.	.
=81	=81	=81	=81	=81	=81	=81	=81	=81	=81
1GG	-ci	1D	-ci	1G	-ci	1B	-ci	1d	-ci
1GG	quos	1D	quos	1G	quos	1B	quos	1d	quos
=82	=82	=82	=82	=82	=82	=82	=82	=82	=82
1EE	nec-	1C	nec-	1G	nec-	1c	nec-	1e	nec-
1EE	-ta-	1C	-ta-	1G	-ta-	1c	-ta-	1e	-ta-
=83	=83	=83	=83	=83	=83	=83	=83	=83	=83
1DD	-re	1FF	-re	1A	-re	1d	-re	1f	-re
1DD	po-	[1AA	po-	1A	po-	1d	po-	1f	po-
=84	=84	=84	=84	=84	=84	=84	=84	=84	=84
0AA	.	2AA/]	.	0A	-tas,	1.c	-tas,	0e	-tas,
.	.	2BB/	.	.	.	.	.	.	.
.	.	1C	-tas,	.	.	.	.	.	.
.	.	.	.	.	.	2A/	.	.	.
=85	=85	=85	=85	=85	=85	=85	=85	=85	=85
0DD	-tas,	0D	et	1.F	et	1B-i	.	1r	.
.	.	.	.	.	.	1A	et	1d	et
.	.	.	.	2G/	.	.	.	.	.
=86	=86	=86	=86	=86	=86	=86	=86	=86	=86
0r	.	1D	fa-	1A	fa-	1d	fa-	1.f	fa-
.	.	1D	-cis	1F	.	2B-i\	.	.	.
.	.	.	.	.	.	2A/	.	2d/	-cis
=87	=87	=87	=87	=87	=87	=87	=87	=87	=87
0r	.	1C	.	2.G/	-cis	1c	-cis	2e/	.
.	.	.	.	.	.	.	.	2c/	as-
.	.	.	.	4F/	.	.	.	.	.
.	.	2r	.	1D	.	2d\	as-	2f/	-si-
.	.	[2F\	as-	.	.	[2c\	-si-	[2a/	.
=88	=88	=88	=88	=88	=88	=88	=88	=88	=88
0r	.	2F\]	.	1r	.	2c\]	.	2a/]	.
.	.	2G\	.	.	.	2B\	.	1g	-du-
.	.	[1D	-si-	1A	as-	1A	-du-	.	.
.	.	.	.	.	.	.	.	2f#i/	.
=89	=89	=89	=89	=89	=89	=89	=89	=89	=89
0GG	e-	2D\]	.	1.B	-si-	1G	.	1g	-os
.	.	2E\	.	.	.	.	.	.	.
.	.	2D\	.	.	.	1d	.	1r	.
.	.	2BB/	-du-	2B\	-du-	.	.	.	.
=90	=90	=90	=90	=90	=90	=90	=90	=90	=90
1AA	-pu-	1C	-os	1A	-os	2.c\	.	1e	e-
.	.	.	.	.	.	4B\	.	.	.
1DD	.	1AA	e-	2.A/	e-	1d	-os	1f	-pu-
.	.	.	.	4F/	.	.	.	.	.
=91	=91	=91	=91	=91	=91	=91	=91	=91	=91
2EE/	.	2GG/	-pu-	2E/	-pu-	1r	.	2g/	-lis
2DD/	.	2FF/	.	2F/	.	.	.	1a	.
2FF/	.	2AA/	.	1D	-lis	1d	e-	.	.
2GG/	.	2BB/	.	.	.	.	.	2g/	ac-
=92	=92	=92	=92	=92	=92	=92	=92	=92	=92
1AA	-lis	2C/	-lis	2r	.	1c	-pu-	2e/	-cum-
.	.	1FF	ac-	2A/	ac-	.	.	2.f/	-be-
1AA	ac-	.	.	2F/	.	1A	-lis	.	.
.	.	.	.	.	.	.	.	4e/	.
.	.	2C/	.	2E/	.	.	.	2c/	.
=93	=93	=93	=93	=93	=93	=93	=93	=93	=93
1GG	-cum-	2BB/	-cum-	1G	-cum-	1B	ac-	2d/	.
.	.	2.E\	.	.	.	.	.	2B/	.
1AA	-be-	.	.	1C	-be-	2A/	-cum-	2c/	.
.	.	4C/	.	.	.	.	.	.	.
.	.	2AA/	-be-	.	.	2c\	.	[2e/	-re
=94	=94	=94	=94	=94	=94	=94	=94	=94	=94
1GG	-re	1BB	-re	1G	-re	1B	-be-	2e/]	.
.	.	.	.	.	.	.	.	2d/	sa-
2AA/	.	2AA/	sa-	2C/	sa-	1E	-re	2c/	.
2EE/	.	2GG/	.	[2G/	.	.	.	[2B/	.
=95	=95	=95	=95	=95	=95	=95	=95	=95	=95
2r	.	1AA	.	4G/]	.	0r	.	4B/]	.
.	.	.	.	4E/	.	.	.	4A/	.
2FF/	sa-	.	.	2F/	.	.	.	1A	.
2GG/	.	1BB	.	2D/	.	.	.	.	.
2EE/	.	.	.	2E/	.	.	.	2G#i/	.
=96	=96	=96	=96	=96	=96	=96	=96	=96	=96
2.FF/	.	0AA	-cris.	2.C/	.	1F	sa-	1.A	.
4DD/	.	.	.	4D/	.	.	.	.	.
2CC/	.	.	.	2E/	.	2E/	.	.	.
2DD/	.	.	.	[2F/	.	2D/	.	[2d/	.
=97	=97	=97	=97	=97	=97	=97	=97	=97	=97
2FF/	.	1r	.	2F/]	.	0A	.	2d/]	.
2DD/	.	.	.	2F/	-cris.	.	.	2B/	.
1AA	.	1AA	sa-	1F	sa-	.	.	1c	.
=98	=98	=98	=98	=98	=98	=98	=98	=98	=98
0AAl	-cris.	0Cl	-cris.	0El	-cris.	0Al	-cris.	0cl	-cris.
!!LO:LB:i:g=z
=99||	=99||	=99||	=99||	=99||	=99||	=99||	=99||	=99||	=99||
*>C	*>C	*>C	*>C	*>C	*>C	*>C	*>C	*>C	*>C
*clefF4	*	*clefF4	*	*clefGv2	*	*clefGv2	*	*clefG2	*
*k[]	*	*k[]	*	*k[]	*	*k[]	*	*k[]	*
*M3/1	*	*M3/1	*	*M3/1	*	*M3/1	*	*M3/1	*
*met(O|)	*	*met(O|)	*	*met(O|)	*	*met(O|)	*	*met(O|)	*
0.r	.	0.r	.	0.r	.	0d	As-	0f	As-
.	.	.	.	.	.	1d	-pi-	1f	-pi-
=100	=100	=100	=100	=100	=100	=100	=100	=100	=100
0.r	.	0.r	.	0.r	.	2.c\	-ci-	1e	-ci-
.	.	.	.	.	.	4B\	.	.	.
.	.	.	.	.	.	1d	-at	1d	-at
.	.	.	.	.	.	2.d\	fa-	[1f	.
.	.	.	.	.	.	4c\	.	.	.
=101	=101	=101	=101	=101	=101	=101	=101	=101	=101
0.r	.	0.r	.	0.r	.	2B\	.	2f/]	.
.	.	.	.	.	.	2A/	.	2f/	fa-
.	.	.	.	.	.	1B	.	1g	.
.	.	.	.	.	.	2A/	.	1a	.
.	.	.	.	.	.	2c\	.	.	.
=102	=102	=102	=102	=102	=102	=102	=102	=102	=102
0.r	.	0.r	.	0.r	.	2B\	.	2g/	.
.	.	.	.	.	.	1e	-ci-	2e/	-ci-
.	.	.	.	.	.	.	.	2.f/	-to
.	.	.	.	.	.	2d\	.	.	.
.	.	.	.	.	.	.	.	4e/	.
.	.	.	.	.	.	1e	-to	1c	.
=103	=103	=103	=103	=103	=103	=103	=103	=103	=103
0.r	.	1.E	mi-	1.B	mi-	2r	.	1.g	mi-
.	.	.	.	.	.	1e	mi-	.	.
.	.	2E\	-se-	2B\	-se-	2e\	-se-	2g/	-se-
.	.	[1E	-ros	[1B	-ros	[1e	-ros	[1g	-ros
=104	=104	=104	=104	=104	=104	=104	=104	=104	=104
0.r	.	1E]	.	1B]	.	1e]	.	1g]	.
.	.	1E	pi-	1B	pi-	1e	pi-	1g	pi-
.	.	1E	-e-	2.c\	-e-	1e	-e-	1g	-e-
.	.	.	.	4B\	.	.	.	.	.
=105	=105	=105	=105	=105	=105	=105	=105	=105	=105
0.r	.	1D	-ta-	1d	-ta-	1f	-ta-	1a	-ta-
.	.	2E\	.	2B\	-tis	1e	.	2g/	.
.	.	2C/	.	2c\	o-	.	.	2e/	.
.	.	1D	-tis	2B\	-cel-	1d	.	1f	.
.	.	.	.	[2A/	.	.	.	.	.
=106	=106	=106	=106	=106	=106	=106	=106	=106	=106
0.r	.	1AA	o-	4A/]	.	1c	-tis	2e/	-tis
.	.	.	.	8G/L	.	.	.	.	.
.	.	.	.	8F/J	.	.	.	.	.
.	.	.	.	2E/	.	.	.	2.e/	o-
.	.	2GG/	.	1G	.	2B\	o-	.	.
.	.	.	.	.	.	.	.	4d/	.
.	.	1C	-cel-	.	.	2c\	-cel-	1e	-cel-
.	.	.	.	2E/	.	1A	.	.	.
.	.	2D\	.	2F/	.	.	.	2c/	.
=107	=107	=107	=107	=107	=107	=107	=107	=107	=107
1r	.	1E	-lo,	1G	-lo,	1G	-lo,	1B	-lo,
1.EE	Fi-	1.BB	Fi-	1.E	Fi-	1.G	Fi-	1.B	Fi-
2EE/	-li-	2BB/	-li-	2E/	-li-	2G/	-li-	2B/	-li-
=108	=108	=108	=108	=108	=108	=108	=108	=108	=108
1EE	-us,	1BB	-us,	1E	-us,	1G	-us,	1B	-us,
1AA	ip-	1C	ip-	1F	ip-	1A	ip-	1r	.
1EE	-sa	1BB	-sa	1E	-sa	1G	-sa	1B	ip-
=109	=109	=109	=109	=109	=109	=109	=109	=109	=109
1r	.	1AA	.	1A	.	1A	.	1c	-sa
1r	.	2r	.	1G	po-	1E	po-	2B/	.
.	.	1C	po-	.	.	.	.	1c	po-
1AA	po-	.	.	1A	.	1F	.	.	.
.	.	2D\	.	.	.	.	.	4B/	.
.	.	.	.	.	.	.	.	4A/	.
=110	=110	=110	=110	=110	=110	=110	=110	=110	=110
1EE	-tes;	1E	.	2G/	.	2E/	.	2c/	.
.	.	.	.	1E	.	1G	.	1B	.
1FF	.	1AA	.	.	.	.	.	.	.
.	.	.	.	2D/	.	2F/	.	1A	.
1EE	.	1BB	.	1E	.	1G	.	.	.
.	.	.	.	.	.	.	.	2G#i/	.
=111	=111	=111	=111	=111	=111	=111	=111	=111	=111
2r	.	0.AA	-tes;	2E/	.	1C	-tes;	1A	-tes;
1FF	fes-	.	.	2C/	.	.	.	.	.
.	.	.	.	1C	-tes;	1F	fes-	1r	.
2DD/	.	.	.	.	.	.	.	.	.
1DD	.	.	.	1D	fes-	1F	-sos	1A	fes-
=112	=112	=112	=112	=112	=112	=112	=112	=112	=112
0AA	-sos	0.r	.	1E	.	2E/	fes-	0c	-sos
.	.	.	.	.	.	1A	.	.	.
.	.	.	.	2F/	.	.	.	.	.
.	.	.	.	2E/	.	2c\	.	.	.
1GG	.	.	.	[1G	-sos	2.B\	.	1d	.
.	.	.	.	.	.	4A/	.	.	.
=113	=113	=113	=113	=113	=113	=113	=113	=113	=113
1C	hinc	0C	hinc	2G/]	.	0c	-sos	1e	hinc
.	.	.	.	2A/	hinc	.	.	.	.
1E	.	.	.	2G/	.	.	.	1g	.
.	.	.	.	1c	.	.	.	.	.
1D	ar-	1F	ar-	.	.	1d	.	1f	.
.	.	.	.	2B\	.	.	.	.	.
=114	=114	=114	=114	=114	=114	=114	=114	=114	=114
1C	-ri-	2G\	-ri-	1c	.	2e\	hinc	1e	.
.	.	2E\	.	.	.	2c\	.	.	.
1BB	.	1D	-pe	2r	.	1d	ar-	2f/	ar-
.	.	.	.	2G/	ar-	.	.	1g	-ri-
1C	.	1C	.	2.E/	-ri-	2e\	-ri-	.	.
.	.	.	.	.	.	4d\	.	4f/	.
.	.	.	.	4F/	.	4c\	.	4e/	.
=115	=115	=115	=115	=115	=115	=115	=115	=115	=115
2GG/	-pe	0D	sur-	2G/	.	2B\	-pe	1.d	-pe
2FF/	.	.	.	2A/	.	2A/	.	.	.
1GG	sur-	.	.	2D/	-pe	1B	sur-	.	.
.	.	.	.	1G	sur-	.	.	2B/	.
1AA	.	1C	.	.	.	1c	.	2.A/	sur-
.	.	.	.	2F#i/	.	.	.	.	.
.	.	.	.	.	.	.	.	4G/	.
=116	=116	=116	=116	=116	=116	=116	=116	=116	=116
1GG	-sum,	2D\	.	1.G	.	1B	-sum,	2B/	.
.	.	1GG	.	.	.	.	.	2.e/	.
2EE/	.	.	.	.	.	1r	.	.	.
.	.	.	.	.	.	.	.	4d/	.
2FF/	.	2AA/	.	2F/	.	.	.	2d/	.
1GG	.	2.BB/	.	1E	-sum,	1G	di-	2e/	.
.	.	.	.	.	.	.	.	2g/	.
.	.	4C/	.	.	.	.	.	.	.
=117	=117	=117	=117	=117	=117	=117	=117	=117	=117
1DD	.	1D	.	1D	sur-	2.A/	-va	2f/	.
.	.	.	.	.	.	.	.	1a	.
.	.	.	.	.	.	4B\	.	.	.
1r	.	1E	.	1G	.	2c\	.	.	.
.	.	.	.	.	.	2B\	.	1g	.
1DD	sur-	1D	-sum,	1A	.	[1d	vir-	.	.
.	.	.	.	.	.	.	.	2f#i/	.
=118	=118	=118	=118	=118	=118	=118	=118	=118	=118
0GG	-sum,	2r	.	0G	-sum,	2d\]	.	1g	-sum,
.	.	1D	di-	.	.	2B\	.	.	.
.	.	.	.	.	.	1B	-go	1r	.
.	.	4C/	.	.	.	.	.	.	.
.	.	4D\	.	.	.	.	.	.	.
1C	di-	1E	-va	1G	di-	1c	di-	1e	di-
=119	=119	=119	=119	=119	=119	=119	=119	=119	=119
1C	-va	1C	vir-	1G	-va	1.c	-va	1e	-va
0FF	vir-	0F	-go	0A	vir-	.	.	0f	vir-
.	.	.	.	.	.	1.d	vir-	.	.
=120	=120	=120	=120	=120	=120	=120	=120	=120	=120
1C	-go	1r	.	1G	-go	1c	-go	1e	-go
0D	ma-	0F	ma-	1r	.	2B\	ma-	1.d	ma-
.	.	.	.	.	.	1B	-nu,	.	.
.	.	.	.	1r	.	.	.	.	.
.	.	.	.	.	.	4A/	.	2c/	.
.	.	.	.	.	.	4B\	.	.	.
=121	=121	=121	=121	=121	=121	=121	=121	=121	=121
1.C	.	1E	.	1G	ma-	0c	.	1e	-nu,
.	.	2G\	.	2E/	.	.	.	1r	.
2AA/	.	2F\	.	2C/	.	.	.	.	.
1BB-	-nu,	1D	-nu,	1G	-nu,	1r	.	1d	tu-
=122	=122	=122	=122	=122	=122	=122	=122	=122	=122
1AA	tu-	1C	tu-	2r	.	1c	tu-	1e	.
.	.	.	.	1A	tu-	.	.	.	.
0FF	.	0F	.	.	.	2d\	.	0a	.
.	.	.	.	2B\	.	1f	.	.	.
.	.	.	.	[1c	-tos	.	.	.	.
.	.	.	.	.	.	2e\	.	.	.
=123	=123	=123	=123	=123	=123	=123	=123	=123	=123
0C	-tos	1G	-tos	2c\]	.	1e	-tos	1g	-tos
.	.	.	.	4B\	.	.	.	.	.
.	.	.	.	4A/	.	.	.	.	.
.	.	1r	.	1G	.	1c	.	2e/	et
.	.	.	.	.	.	.	.	2c/	.
1GG	et	1G	et	1r	.	2.B\	et	1d	.
.	.	.	.	.	.	4A/	.	.	.
=124	=124	=124	=124	=124	=124	=124	=124	=124	=124
1AA	in	2.C/	in	1r	.	1c	in	1c	in
.	.	4D\	.	.	.	.	.	.	.
1EE	.	1.E	ar-	1r	.	2B\	ar-	2r	.
.	.	.	.	.	.	1G	.	1B	ar-
2r	.	.	.	2E/	et	.	.	.	.
[2AA/	ar-	2AA/	.	2C/	in	2F/	.	2A/	.
=125	=125	=125	=125	=125	=125	=125	=125	=125	=125
2AA/]	.	2AA/	-ce	2E/	ar-	2.A/	-ce	2.c/	-ce
2FF/	.	2.C/	.	2A/	.	.	.	.	.
.	.	.	.	.	.	4B\	.	4d/	.
1EE	-ce	.	.	2.G/	-ce	1c	.	1e	.
.	.	4D\	.	.	.	.	.	.	.
.	.	2E\	.	.	.	.	.	.	.
.	.	.	.	4F/	.	.	.	.	.
1DD	.	2AA/	.	1A	.	[1d	lo-	2.f/	lo-
.	.	2D\	.	.	.	.	.	.	.
.	.	.	.	.	.	.	.	4e/	.
=126	=126	=126	=126	=126	=126	=126	=126	=126	=126
2r	.	2GG/	lo-	2B\	lo-	2d\]	.	2g/	-ca-
1FF	lo-	1AA	-ca-	1A	-ca-	1c	.	1f	.
2GG/	.	2BB/	.	2G/	.	2B\	.	1e	.
2AA/	-ca-	2C/	.	1F	.	2A/	.	.	.
2DD/	.	2AA/	.	.	.	2d\	.	2d/	.
=127	=127	=127	=127	=127	=127	=127	=127	=127	=127
2AA/	.	2C/	.	2E/	.	2c\	.	2e/	-to.
2GG/	.	2D\	.	1G	.	2.B\	-ca-	2r	.
2EE/	.	2E\	.	.	.	.	.	1r	.
.	.	.	.	.	.	4A/	.	.	.
2FF/	.	2AA/	.	2.D/	.	1A	.	.	.
1GG	.	1BB	.	.	.	.	.	1r	.
.	.	.	.	4E/	.	.	.	.	.
.	.	.	.	2G/	.	2G#i/	.	.	.
=128	=128	=128	=128	=128	=128	=128	=128	=128	=128
2DD/	.	2D\	.	2F/	.	2A/	-to.	0.r	.
2EE/	.	4C/	.	2.E/	.	2r	.	.	.
.	.	2BB/	.	.	.	.	.	.	.
1FF	.	.	.	.	.	1r	.	.	.
.	.	4AA/	.	4D/	.	.	.	.	.
.	.	1AA	.	1D	.	.	.	.	.
1EE	.	.	.	.	.	1r	.	.	.
.	.	2GG/	.	2C#i/	.	.	.	.	.
=129	=129	=129	=129	=129	=129	=129	=129	=129	=129
2DD/	-to.	4AA/	.	2.D/	-to.	2.d\	A-	1r	.
.	.	2BB/	.	.	.	.	.	.	.
2r	.	.	.	.	.	.	.	.	.
.	.	4GG/	.	2G/	A-	4B\	.	.	.
1r	.	2AA/	.	.	.	2c\	.	2r	.
.	.	.	.	4F/	.	.	.	.	.
.	.	1GG	-to.	4G/	.	4B\	.	2d/	A-
.	.	.	.	4D/	.	2G/	.	.	.
1r	.	.	.	2G/	.	.	.	4e/	.
.	.	.	.	.	.	4E/	.	2g/	.
.	.	[2D\	A-	2A/	.	2D/	.	.	.
.	.	.	.	.	.	.	.	4f#i/	.
=130	=130	=130	=130	=130	=130	=130	=130	=130	=130
2GG/	A-	4D\]	.	2B\	.	4d\	.	2g/	.
.	.	4BB/	.	.	.	4e\	.	.	.
2FF/	.	2C/	.	2A/	.	1f	.	1a	.
2DD/	.	2D\	.	2r	.	.	.	.	.
2GG/	.	2BB/	.	2B\	.	2d\	.	2g/	.
2.AA/	.	2C/	.	2.A/	.	4r	.	2e/	.
.	.	.	.	.	.	2c\	.	.	.
.	.	[2AA/	.	.	.	.	.	[2f/	.
4DD/	.	.	.	4F/	.	4B\	.	.	.
=131	=131	=131	=131	=131	=131	=131	=131	=131	=131
2DD/	.	2AA/]	.	2A/	.	2d\	.	2f/]	.
2GG/	.	2BB/	.	2G/	.	2B\	.	2e/	.
2FF/	.	2AA/	.	2A/	.	2.c\	.	2f/	.
2AA/	.	2.C/	.	2E/	.	.	.	4e/	.
.	.	.	.	.	.	8B/L	.	2e/	.
.	.	.	.	.	.	8A/J	.	.	.
1EE	.	.	.	2r	.	1G	.	.	.
.	.	8BB/L	.	.	.	.	.	8d/L	.
.	.	8AA/J	.	.	.	.	.	8c/J	.
.	.	2GG/	.	[2E/	.	.	.	4.B/	.
.	.	.	.	.	.	.	.	8A/	.
=132	=132	=132	=132	=132	=132	=132	=132	=132	=132
2AA/	.	2r	.	4E/]	.	2A/	.	2c/	.
.	.	.	.	8D/L	.	.	.	.	.
.	.	.	.	8C/J	.	.	.	.	.
2GG/	.	2D\	.	2BB/	.	2B\	.	2d/	.
2.C/	.	4C/	.	2AA/	.	1c	.	2e/	.
.	.	2E\	.	.	.	.	.	.	.
.	.	.	.	2E/	.	.	.	1g	.
4BB/	.	8D/L	.	.	.	.	.	.	.
.	.	8C/J	.	.	.	.	.	.	.
2GG/	.	2BB/	.	2D/	.	2d\	.	.	.
2AA/	.	2C/	.	2r	.	2c\	.	2f/	.
=133	=133	=133	=133	=133	=133	=133	=133	=133	=133
2BB-/	.	2D\	.	2D/	.	2r	.	2g/	.
2AA/	.	2C/	.	2E/	.	1c	.	1a	.
2FF/	.	2AA/	.	2F/	.	.	.	.	.
2GG/	.	2BB/	.	2D/	.	2B\	.	2g/	.
2.AA/	.	2C/	.	2.C/	.	2A/	.	2e/	.
.	.	2AA/	.	.	.	[2c\	.	2f/	.
4FF/	.	.	.	4D/	.	.	.	.	.
=134	=134	=134	=134	=134	=134	=134	=134	=134	=134
2EE/	.	2GG/	.	2E/	.	2c\]	.	2g/	.
2DD/	.	2.AA/	.	2AA/	.	1d	.	1f	.
2FF/	.	.	.	2A/	.	.	.	.	.
.	.	4BB/	.	.	.	.	.	.	.
2CC/	.	2C/	.	2G/	.	2c\	.	1e	.
1DD	.	1FF	.	1F	.	1A	.	.	.
.	.	.	.	.	.	.	.	2d/	.
=135	=135	=135	=135	=135	=135	=135	=135	=135	=135
2r	.	1C	.	[0.El	-men.	2G/	.	[0.el	-men.
1AA	.	.	.	.	.	2A/	.	.	.
.	.	2AA/	.	.	.	2c\	.	.	.
2GG/	.	2BB/	.	.	.	2B\	.	.	.
1EE	.	1C	.	.	.	1G	.	.	.
=136	=136	=136	=136	=136	=136	=136	=136	=136	=136
*	*	*	*	*	*	*^	*	*	*
0.EEl	-men.	0.BBl	-men.	0.E]	.	0.Gl\	0.Bl/	-men.	0.e]	.
*	*	*	*	*	*	*v	*v	*	*	*
==	==	==	==	==	==	==	==	==	==
*-	*-	*-	*-	*-	*-	*-	*-	*-	*-
!!!RDF**kern: l=long note in original notation
!!!RDF**kern: i=editorial accidental
!!!RDF**kern: V=start of tuplet marker
!!!RDF**kern: Z=end of tuplet marker
!!!ENC:	Jesse Rodin 8-16-2012
!!!END:	2012/08/16/
!!!EED:	Jesse Rodin
!!!EEV:	2012/08/16/
!!!ONB:	Translated from MusicXML and edited on 2012/08/16/ by Craig Sapp
!!muse2ps: C^@{COM}^i2I150v95,95,95,95,110Q16
